static/images/date-tribal-vector.svg

<svg width="592" height="654" viewBox="0 0 592 654" fill="none" xmlns="http://www.w3.org/2000/svg">
<rect width="592" height="654" fill="white"/>
<g opacity="0.5">
<path opacity="0.5" d="M0 0H46.7368L297.113 277.394L546.376 0H592L296 327L0 0Z" fill="#B6C1D6"/>
<path opacity="0.5" d="M106.271 46.3806C115.173 46.3806 122.406 39.4847 122.406 31.0316C122.406 22.5785 115.173 15.6826 106.271 15.6826C97.3684 15.6826 90.1353 22.5785 90.1353 31.0316C90.1353 39.5959 97.3684 46.3806 106.271 46.3806Z" fill="#B6C1D6"/>
<path opacity="0.5" d="M144.105 88.646C153.008 88.646 160.241 81.75 160.241 73.297C160.241 64.8439 153.008 57.948 144.105 57.948C135.203 57.948 127.97 64.8439 127.97 73.297C127.97 81.75 135.203 88.646 144.105 88.646Z" fill="#B6C1D6"/>
<path opacity="0.5" d="M181.94 130.8C190.842 130.8 198.075 123.904 198.075 115.451C198.075 106.998 190.842 100.102 181.94 100.102C173.038 100.102 165.805 106.998 165.805 115.451C165.805 123.904 173.038 130.8 181.94 130.8Z" fill="#B6C1D6"/>
<path opacity="0.5" d="M219.774 172.954C228.677 172.954 235.91 166.058 235.91 157.605C235.91 149.152 228.677 142.256 219.774 142.256C210.872 142.256 203.639 149.152 203.639 157.605C203.639 166.169 210.872 172.954 219.774 172.954Z" fill="#B6C1D6"/>
<path opacity="0.5" d="M257.609 215.219C266.511 215.219 273.744 208.324 273.744 199.87C273.744 191.417 266.511 184.521 257.609 184.521C248.707 184.521 241.474 191.417 241.474 199.87C241.474 208.324 248.707 215.219 257.609 215.219Z" fill="#B6C1D6"/>
<path opacity="0.5" d="M296.556 245.806C305.459 245.806 312.692 238.91 312.692 230.457C312.692 222.004 305.459 215.108 296.556 215.108C287.654 215.108 280.421 222.004 280.421 230.457C280.421 238.91 287.654 245.806 296.556 245.806Z" fill="#B6C1D6"/>
<path opacity="0.5" d="M335.504 211.994C344.406 211.994 351.639 205.098 351.639 196.645C351.639 188.192 344.406 181.296 335.504 181.296C326.601 181.296 319.368 188.192 319.368 196.645C319.368 205.209 326.601 211.994 335.504 211.994Z" fill="#B6C1D6"/>
<path opacity="0.5" d="M374.451 171.953C383.353 171.953 390.586 165.057 390.586 156.604C390.586 148.151 383.353 141.255 374.451 141.255C365.549 141.255 358.316 148.151 358.316 156.604C358.316 165.057 365.549 171.953 374.451 171.953Z" fill="#B6C1D6"/>
<path opacity="0.5" d="M413.399 130.8C422.301 130.8 429.534 123.904 429.534 115.451C429.534 106.998 422.301 100.102 413.399 100.102C404.496 100.102 397.263 107.109 397.263 115.451C397.263 123.904 404.496 130.8 413.399 130.8Z" fill="#B6C1D6"/>
<path opacity="0.5" d="M451.233 88.646C460.135 88.646 467.368 81.75 467.368 73.297C467.368 64.8439 460.135 57.948 451.233 57.948C442.331 57.948 435.098 64.8439 435.098 73.297C435.098 81.75 442.331 88.646 451.233 88.646Z" fill="#B6C1D6"/>
<path opacity="0.5" d="M489.068 45.3796C497.97 45.3796 505.203 38.4837 505.203 30.0306C505.203 21.5776 497.97 14.6816 489.068 14.6816C480.165 14.6816 472.932 21.5776 472.932 30.0306C472.932 38.4837 480.165 45.3796 489.068 45.3796Z" fill="#B6C1D6"/>
<path opacity="0.5" d="M112.391 1.00102H160.241L297.113 152.934L432.872 0H478.496L296 201.428L112.391 1.00102Z" fill="#B6C1D6"/>
<path opacity="0.5" d="M202.526 0L297.113 104.44L390.586 0H202.526Z" fill="#B6C1D6"/>
<path opacity="0.5" d="M0 654H46.7368L297.113 376.606L546.376 654H592L296 327L0 654Z" fill="#B6C1D6"/>
<path opacity="0.5" d="M106.271 638.206C115.173 638.206 122.406 631.31 122.406 622.857C122.406 614.404 115.173 607.508 106.271 607.508C97.3684 607.508 90.1353 614.404 90.1353 622.857C90.1353 631.31 97.3684 638.206 106.271 638.206Z" fill="#B6C1D6"/>
<path opacity="0.5" d="M144.105 595.941C153.008 595.941 160.241 589.045 160.241 580.592C160.241 572.139 153.008 565.243 144.105 565.243C135.203 565.243 127.97 572.139 127.97 580.592C127.97 589.156 135.203 595.941 144.105 595.941Z" fill="#B6C1D6"/>
<path opacity="0.5" d="M181.94 553.787C190.842 553.787 198.075 546.891 198.075 538.438C198.075 529.985 190.842 523.089 181.94 523.089C173.038 523.089 165.805 529.985 165.805 538.438C165.805 546.891 173.038 553.787 181.94 553.787Z" fill="#B6C1D6"/>
<path opacity="0.5" d="M219.774 511.633C228.677 511.633 235.91 504.737 235.91 496.284C235.91 487.831 228.677 480.935 219.774 480.935C210.872 480.935 203.639 487.831 203.639 496.284C203.639 504.737 210.872 511.633 219.774 511.633Z" fill="#B6C1D6"/>
<path opacity="0.5" d="M257.609 469.367C266.511 469.367 273.744 462.471 273.744 454.018C273.744 445.565 266.511 438.669 257.609 438.669C248.707 438.669 241.474 445.565 241.474 454.018C241.474 462.583 248.707 469.367 257.609 469.367Z" fill="#B6C1D6"/>
<path opacity="0.5" d="M296.556 438.781C305.459 438.781 312.692 431.885 312.692 423.432C312.692 414.979 305.459 408.083 296.556 408.083C287.654 408.083 280.421 414.979 280.421 423.432C280.421 431.996 287.654 438.781 296.556 438.781Z" fill="#B6C1D6"/>
<path opacity="0.5" d="M335.504 472.593C344.406 472.593 351.639 465.697 351.639 457.244C351.639 448.791 344.406 441.895 335.504 441.895C326.601 441.895 319.368 448.791 319.368 457.244C319.368 465.697 326.601 472.593 335.504 472.593Z" fill="#B6C1D6"/>
<path opacity="0.5" d="M374.451 512.634C383.353 512.634 390.586 505.738 390.586 497.285C390.586 488.832 383.353 481.936 374.451 481.936C365.549 481.936 358.316 488.832 358.316 497.285C358.316 505.849 365.549 512.634 374.451 512.634Z" fill="#B6C1D6"/>
<path opacity="0.5" d="M413.399 553.787C422.301 553.787 429.534 546.891 429.534 538.438C429.534 529.985 422.301 523.089 413.399 523.089C404.496 523.089 397.263 529.985 397.263 538.438C397.263 546.891 404.496 553.787 413.399 553.787Z" fill="#B6C1D6"/>
<path opacity="0.5" d="M451.233 595.941C460.135 595.941 467.368 589.045 467.368 580.592C467.368 572.139 460.135 565.243 451.233 565.243C442.331 565.243 435.098 572.139 435.098 580.592C435.098 589.156 442.331 595.941 451.233 595.941Z" fill="#B6C1D6"/>
<path opacity="0.5" d="M489.068 639.207C497.97 639.207 505.203 632.311 505.203 623.858C505.203 615.405 497.97 608.509 489.068 608.509C480.165 608.509 472.932 615.516 472.932 623.969C472.932 632.422 480.165 639.207 489.068 639.207Z" fill="#B6C1D6"/>
<path opacity="0.5" d="M112.391 652.888H160.241L297.113 500.955L432.872 654H478.496L296 452.572L112.391 652.888Z" fill="#B6C1D6"/>
<path opacity="0.5" d="M202.526 654L297.113 549.56L390.586 654H202.526Z" fill="#B6C1D6"/>
<path opacity="0.5" d="M0 52.7205V104.44L200.301 323.886L0 544.333V594.94L248.15 323.886L0 52.7205Z" fill="#B6C1D6"/>
<path opacity="0.5" d="M0 144.481V196.2L116.842 321.772L0 453.573V503.18L164.692 323.886L0 144.481Z" fill="#B6C1D6"/>
<path opacity="0.5" d="M0 244.694L71.218 321.661L0 403.967V244.694Z" fill="#B6C1D6"/>
<path opacity="0.5" d="M592 594.94V543.22L391.699 323.886L592 103.328V52.7205L343.85 323.886L592 594.94Z" fill="#B6C1D6"/>
<path opacity="0.5" d="M592 503.18V451.46L475.158 325.888L592 194.087V144.481L427.308 323.886L592 503.18Z" fill="#B6C1D6"/>
<path opacity="0.5" d="M592 402.966L520.782 325.888L592 243.582V402.966Z" fill="#B6C1D6"/>
</g>
</svg>

<?xml version="1.0" encoding="utf-8"?>
<!-- Generator: Adobe Illustrator 21.0.2, SVG Export Plug-In . SVG Version: 6.00 Build 0)  -->
<svg version="1.1" id="date-tribal-vector" xmlns="http://www.w3.org/2000/svg" xmlns:xlink="http://www.w3.org/1999/xlink" x="0px"
	 y="0px" viewBox="0 0 592 654" style="enable-background:new 0 0 592 654;" xml:space="preserve">
<style type="text/css">
	.st0{opacity:0.5;fill:#020202;enable-background:new    ;}
</style>
<path id="circletop11" class="st0" d="M106.3,46.4c8.9,0,16.1-6.9,16.1-15.3s-7.2-15.3-16.1-15.3c-8.9,0-16.1,6.9-16.1,15.3
	C90.1,39.6,97.4,46.4,106.3,46.4z"/>
<path id="circletop10" class="st0" d="M144.1,88.6c8.9,0,16.1-6.9,16.1-15.3c0-8.5-7.2-15.3-16.1-15.3c-8.9,0-16.1,6.9-16.1,15.3
	C128,81.8,135.2,88.6,144.1,88.6z"/>
<path id="circletop9" class="st0" d="M181.9,130.8c8.9,0,16.1-6.9,16.1-15.3s-7.2-15.3-16.1-15.3c-8.9,0-16.1,6.9-16.1,15.3
	S173,130.8,181.9,130.8z"/>
<path id="circletop8" class="st0" d="M219.8,173c8.9,0,16.1-6.9,16.1-15.3s-7.2-15.3-16.1-15.3c-8.9,0-16.1,6.9-16.1,15.3
	C203.6,166.2,210.9,173,219.8,173z"/>
<path id="circletop7" class="st0" d="M257.6,215.2c8.9,0,16.1-6.9,16.1-15.3c0-8.5-7.2-15.3-16.1-15.3c-8.9,0-16.1,6.9-16.1,15.3
	C241.5,208.3,248.7,215.2,257.6,215.2z"/>
<path id="circletop6" class="st0" d="M296.6,245.8c8.9,0,16.1-6.9,16.1-15.3s-7.2-15.3-16.1-15.3c-8.9,0-16.1,6.9-16.1,15.3
	S287.7,245.8,296.6,245.8z"/>
<path id="circletop5" class="st0" d="M335.5,212c8.9,0,16.1-6.9,16.1-15.3s-7.2-15.3-16.1-15.3c-8.9,0-16.1,6.9-16.1,15.3
	C319.4,205.2,326.6,212,335.5,212z"/>
<path id="circletop4" class="st0" d="M374.5,172c8.9,0,16.1-6.9,16.1-15.3s-7.2-15.3-16.1-15.3c-8.9,0-16.1,6.9-16.1,15.3
	S365.5,172,374.5,172z"/>
<path id="circletop3" class="st0" d="M413.4,130.8c8.9,0,16.1-6.9,16.1-15.3s-7.2-15.3-16.1-15.3c-8.9,0-16.1,7-16.1,15.3
	C397.3,123.9,404.5,130.8,413.4,130.8z"/>
<path id="circletop2" class="st0" d="M451.2,88.6c8.9,0,16.1-6.9,16.1-15.3c0-8.5-7.2-15.3-16.1-15.3s-16.1,6.9-16.1,15.3
	C435.1,81.8,442.3,88.6,451.2,88.6z"/>
<path id="circletop1" class="st0" d="M489.1,45.4c8.9,0,16.1-6.9,16.1-15.3c0-8.5-7.2-15.3-16.1-15.3c-8.9,0-16.1,6.9-16.1,15.3
	C472.9,38.5,480.2,45.4,489.1,45.4z"/>
<path id="arrowtop-3" class="st0" d="M0,0h46.7l250.4,277.4L546.4,0H592L296,327L0,0z"/>
<path id="arrowtop-2" class="st0" d="M112.4,1h47.8l136.9,151.9L432.9,0h45.6L296,201.4L112.4,1z"/>
<path id="arrowtop-1" class="st0" d="M202.5,0l94.6,104.4L390.6,0H202.5z"/>
<path id="arrowbtm-3" class="st0" d="M0,654h46.7l250.4-277.4L546.4,654H592L296,327L0,654z"/>
<path id="circle11" class="st0" d="M106.3,638.2c8.9,0,16.1-6.9,16.1-15.3s-7.2-15.3-16.1-15.3c-8.9,0-16.1,6.9-16.1,15.3
	S97.4,638.2,106.3,638.2z"/>
<path id="circle10" class="st0" d="M144.1,595.9c8.9,0,16.1-6.9,16.1-15.3s-7.2-15.3-16.1-15.3c-8.9,0-16.1,6.9-16.1,15.3
	C128,589.2,135.2,595.9,144.1,595.9z"/>
<path id="circle9" class="st0" d="M181.9,553.8c8.9,0,16.1-6.9,16.1-15.3s-7.2-15.3-16.1-15.3c-8.9,0-16.1,6.9-16.1,15.3
	S173,553.8,181.9,553.8z"/>
<path id="circle8" class="st0" d="M219.8,511.6c8.9,0,16.1-6.9,16.1-15.3s-7.2-15.3-16.1-15.3c-8.9,0-16.1,6.9-16.1,15.3
	S210.9,511.6,219.8,511.6z"/>
<path id="circle7" class="st0" d="M257.6,469.4c8.9,0,16.1-6.9,16.1-15.3s-7.2-15.3-16.1-15.3c-8.9,0-16.1,6.9-16.1,15.3
	C241.5,462.6,248.7,469.4,257.6,469.4z"/>
<path id="circle6" class="st0" d="M296.6,438.8c8.9,0,16.1-6.9,16.1-15.3s-7.2-15.3-16.1-15.3c-8.9,0-16.1,6.9-16.1,15.3
	C280.4,432,287.7,438.8,296.6,438.8z"/>
<path id="circle5" class="st0" d="M335.5,472.6c8.9,0,16.1-6.9,16.1-15.3s-7.2-15.3-16.1-15.3c-8.9,0-16.1,6.9-16.1,15.3
	S326.6,472.6,335.5,472.6z"/>
<path id="circle4" class="st0" d="M374.5,512.6c8.9,0,16.1-6.9,16.1-15.3s-7.2-15.3-16.1-15.3c-8.9,0-16.1,6.9-16.1,15.3
	C358.3,505.8,365.5,512.6,374.5,512.6z"/>
<path id="circle3" class="st0" d="M413.4,553.8c8.9,0,16.1-6.9,16.1-15.3s-7.2-15.3-16.1-15.3c-8.9,0-16.1,6.9-16.1,15.3
	S404.5,553.8,413.4,553.8z"/>
<path id="circle2" class="st0" d="M451.2,595.9c8.9,0,16.1-6.9,16.1-15.3s-7.2-15.3-16.1-15.3s-16.1,6.9-16.1,15.3
	C435.1,589.2,442.3,595.9,451.2,595.9z"/>
<path id="circle1" class="st0" d="M489.1,639.2c8.9,0,16.1-6.9,16.1-15.3c0-8.5-7.2-15.3-16.1-15.3c-8.9,0-16.1,7-16.1,15.5
	S480.2,639.2,489.1,639.2z"/>
<path id="arrowbtm-2" class="st0" d="M112.4,652.9h47.8L297.1,501l135.8,153h45.6L296,452.6L112.4,652.9z"/>
<path id="arrowbtm-1" class="st0" d="M202.5,654l94.6-104.4L390.6,654H202.5z"/>
<path id="arrowleft-3" class="st0" d="M0,52.7v51.7l200.3,219.4L0,544.3v50.6l248.1-271.1L0,52.7z"/>
<path id="arrowleft-2" class="st0" d="M0,144.5v51.7l116.8,125.6L0,453.6v49.6l164.7-179.3L0,144.5z"/>
<path id="arrowleft-1" class="st0" d="M0,244.7l71.2,77L0,404V244.7z"/>
<path id="arrowright-3" class="st0" d="M592,594.9v-51.7L391.7,323.9L592,103.3V52.7L343.9,323.9L592,594.9z"/>
<path id="arrowright-2" class="st0" d="M592,503.2v-51.7L475.2,325.9L592,194.1v-49.6L427.3,323.9L592,503.2z"/>
<path id="arrowright-1" class="st0" d="M592,403l-71.2-77.1l71.2-82.3V403z"/>
</svg>
